z_dist/img/vector_img/dark-logo.svg

<svg width="248" height="96" viewBox="0 0 248 96" fill="none" xmlns="http://www.w3.org/2000/svg">
<rect y="14" width="248" height="68" rx="16" fill="#3FA99E"/>
<path d="M17 8C17 4.13401 20.134 1 24 1H76C79.866 1 83 4.13401 83 8V88C83 91.866 79.866 95 76 95H24C20.134 95 17 91.866 17 88V8Z" stroke="#0D090A" stroke-width="2"/>
<path d="M17 14V12.875V12.5V11V8C17 4.13401 20.134 1 24 1H50.5L76 1C79.866 1 83 4.13401 83 8V11V12.5V12.875V14M17 82V88C17 91.866 20.134 95 24 95H76C79.866 95 83 91.866 83 88V82" stroke="#FFFCFF" stroke-width="2"/>
<rect x="22.5" y="8.5" width="55" height="15" rx="3.5" stroke="#0D090A"/>
<path d="M22.5 14V12V12C22.5 10.067 24.067 8.5 26 8.5H50H74C75.933 8.5 77.5 10.067 77.5 12V12V14" stroke="#FFFCFF"/>
<rect x="22.5" y="30.5" width="9" height="9" rx="1.5" stroke="#0D090A"/>
<rect x="37.833" y="30.5" width="9" height="9" rx="1.5" stroke="#0D090A"/>
<rect x="53.166" y="30.5" width="9" height="9" rx="1.5" stroke="#0D090A"/>
<rect x="68.499" y="30.5" width="9" height="9" rx="1.5" stroke="#0D090A"/>
<rect x="22.5" y="46.5" width="9" height="9" rx="1.5" stroke="#0D090A"/>
<rect x="37.833" y="46.5" width="9" height="9" rx="1.5" stroke="#0D090A"/>
<rect x="53.166" y="46.5" width="9" height="9" rx="1.5" stroke="#0D090A"/>
<rect x="68.499" y="46.5" width="9" height="9" rx="1.5" stroke="#0D090A"/>
<rect x="22.5" y="62.5" width="9" height="9" rx="1.5" stroke="#0D090A"/>
<rect x="37.833" y="62.5" width="9" height="9" rx="1.5" stroke="#0D090A"/>
<rect x="53.166" y="62.5" width="9" height="9" rx="1.5" stroke="#0D090A"/>
<rect x="68.499" y="62.5" width="9" height="9" rx="1.5" stroke="#0D090A"/>
<path d="M22.5 82V82.141V82.2821V82.4231V82.9872V85.5C22.5 86.6046 23.3954 87.5 24.5 87.5H29.5C30.6046 87.5 31.5 86.6046 31.5 85.5V82.9872V82.4231V82.141V82" stroke="#FFFCFF"/>
<path d="M22.5 82V81.8654V81.7308V80.6538V80.6538C22.5 79.4643 23.4643 78.5 24.6538 78.5H29.3462C30.5357 78.5 31.5 79.4643 31.5 80.6538V80.6538V81.7308V81.8654V82" stroke="#0D090A"/>
<path d="M37.833 82V82.141V82.2821V82.4231V82.9872V85.5C37.833 86.6046 38.7284 87.5 39.833 87.5H44.833C45.9376 87.5 46.833 86.6046 46.833 85.5V82.9872V82.4231V82.141V82" stroke="#FFFCFF"/>
<path d="M37.833 82V81.8654V81.7308V80.6538V80.6538C37.833 79.4643 38.7973 78.5 39.9869 78.5H44.6792C45.8687 78.5 46.833 79.4643 46.833 80.6538V80.6538V81.7308V81.8654V82" stroke="#0D090A"/>
<path d="M53.166 82V82.141V82.2821V82.4231V82.9872V85.5C53.166 86.6046 54.0614 87.5 55.166 87.5H60.166C61.2706 87.5 62.166 86.6046 62.166 85.5V82.9872V82.4231V82.141V82" stroke="#FFFCFF"/>
<path d="M53.166 82V81.8654V81.7308V80.6538V80.6538C53.166 79.4643 54.1303 78.5 55.3199 78.5H60.0122C61.2017 78.5 62.166 79.4643 62.166 80.6538V80.6538V81.7308V81.8654V82" stroke="#0D090A"/>
<path d="M68.499 82V82.141V82.2821V82.4231V82.9872V85.5C68.499 86.6046 69.3945 87.5 70.499 87.5H75.499C76.6036 87.5 77.499 86.6046 77.499 85.5V82.9872V82.4231V82.141V82" stroke="#FFFCFF"/>
<path d="M68.499 82V81.8654V81.7308V80.6538V80.6538C68.499 79.4643 69.4633 78.5 70.6529 78.5H75.3452C76.5347 78.5 77.499 79.4643 77.499 80.6538V80.6538V81.7308V81.8654V82" stroke="#0D090A"/>
<path d="M108.496 59.3318C106.92 59.3318 105.501 59.0829 104.238 58.5853C102.975 58.0784 101.902 57.3688 101.017 56.4564C100.132 55.544 99.455 54.4657 98.9849 53.2216C98.5149 51.9774 98.2799 50.6134 98.2799 49.1297C98.2799 47.1482 98.6854 45.388 99.4964 43.8489C100.307 42.3098 101.45 41.1025 102.925 40.227C104.399 39.3515 106.137 38.9137 108.136 38.9137C108.782 38.9137 109.413 38.9598 110.03 39.052C110.648 39.1349 111.233 39.2547 111.786 39.4114C112.348 39.5588 112.869 39.7247 113.348 39.9091C113.827 40.0842 114.247 40.2731 114.606 40.4758L114.33 43.5448C113.62 43.1116 112.929 42.7614 112.256 42.4941C111.583 42.2269 110.929 42.0333 110.293 41.9135C109.657 41.7845 109.04 41.72 108.441 41.72C107.132 41.72 105.966 42.0195 104.943 42.6186C103.92 43.2084 103.118 44.0563 102.538 45.1622C101.957 46.2681 101.667 47.5906 101.667 49.1297C101.667 50.1526 101.814 51.1157 102.109 52.0189C102.413 52.9128 102.865 53.7054 103.464 54.3966C104.063 55.0786 104.814 55.6177 105.717 56.014C106.62 56.4011 107.666 56.5946 108.855 56.5946C109.316 56.5946 109.772 56.567 110.224 56.5117C110.685 56.4472 111.141 56.3504 111.592 56.2214C112.053 56.0924 112.505 55.9172 112.947 55.6961C113.399 55.4749 113.841 55.2122 114.274 54.9081L114.495 57.9494C114.099 58.1798 113.666 58.3871 113.196 58.5715C112.726 58.7466 112.233 58.8894 111.717 59C111.201 59.1106 110.671 59.1935 110.127 59.2488C109.583 59.3041 109.04 59.3318 108.496 59.3318ZM125.156 59.3318C123.976 59.3318 122.944 59.1336 122.059 58.7373C121.174 58.3411 120.433 57.8065 119.833 57.1338C119.244 56.4518 118.801 55.6776 118.506 54.8113C118.211 53.9358 118.064 53.0188 118.064 52.0604C118.064 50.6872 118.34 49.466 118.893 48.397C119.446 47.3187 120.248 46.4708 121.299 45.8534C122.349 45.2267 123.617 44.9133 125.1 44.9133C126.234 44.9133 127.239 45.0931 128.114 45.4525C128.99 45.8119 129.722 46.3188 130.312 46.9731C130.911 47.6182 131.363 48.374 131.667 49.2403C131.971 50.1066 132.123 51.0466 132.123 52.0604C132.123 53.4335 131.847 54.6685 131.294 55.7652C130.741 56.8619 129.939 57.7328 128.888 58.3779C127.847 59.0138 126.603 59.3318 125.156 59.3318ZM125.142 56.8435C126.027 56.8435 126.764 56.6177 127.354 56.1661C127.944 55.7053 128.381 55.1108 128.667 54.3828C128.962 53.6547 129.109 52.8806 129.109 52.0604C129.109 51.1111 128.943 50.2909 128.612 49.5997C128.289 48.8993 127.828 48.3601 127.229 47.9823C126.639 47.5952 125.939 47.4017 125.128 47.4017C124.253 47.4017 123.511 47.609 122.902 48.0237C122.303 48.4292 121.847 48.9868 121.534 49.6964C121.23 50.3969 121.078 51.1848 121.078 52.0604C121.078 52.8806 121.225 53.6547 121.52 54.3828C121.824 55.1108 122.276 55.7053 122.875 56.1661C123.483 56.6177 124.239 56.8435 125.142 56.8435ZM140.179 59.318C139.58 59.318 138.986 59.2765 138.396 59.1935C137.815 59.1106 137.267 58.9954 136.751 58.8479C136.244 58.6913 135.797 58.5208 135.41 58.3364L135.631 55.6546C136.046 55.8942 136.498 56.1062 136.986 56.2905C137.474 56.4656 137.981 56.6038 138.507 56.7052C139.041 56.7974 139.576 56.8435 140.11 56.8435C140.553 56.8435 140.958 56.802 141.327 56.719C141.705 56.6269 142.004 56.4564 142.225 56.2076C142.456 55.9587 142.571 55.5901 142.571 55.1016C142.571 54.7791 142.465 54.5118 142.253 54.2998C142.041 54.0879 141.695 53.8989 141.216 53.7331C140.737 53.558 140.083 53.3552 139.253 53.1248C138.488 52.922 137.82 52.6686 137.249 52.3645C136.687 52.0604 136.249 51.6548 135.935 51.148C135.622 50.6411 135.465 49.9729 135.465 49.1435C135.465 47.8072 135.894 46.7704 136.751 46.0331C137.608 45.2958 138.756 44.9272 140.193 44.9272C140.801 44.9272 141.391 44.9779 141.963 45.0792C142.534 45.1714 143.055 45.2958 143.525 45.4525C144.004 45.5999 144.41 45.7566 144.741 45.9225L144.506 48.6044C144.082 48.3371 143.622 48.1159 143.124 47.9408C142.635 47.7565 142.165 47.6228 141.714 47.5399C141.262 47.4477 140.88 47.4017 140.566 47.4017C140.207 47.4017 139.866 47.4524 139.543 47.5537C139.23 47.6459 138.977 47.8118 138.783 48.0514C138.59 48.2818 138.493 48.5951 138.493 48.9914C138.493 49.3048 138.567 49.572 138.714 49.7932C138.861 50.0144 139.129 50.2172 139.516 50.4015C139.912 50.5858 140.484 50.7793 141.23 50.9821C142.161 51.2493 142.949 51.5304 143.594 51.8253C144.248 52.1203 144.741 52.5073 145.073 52.9866C145.405 53.4658 145.571 54.1293 145.571 54.9772C145.571 55.8251 145.386 56.5762 145.018 57.2305C144.649 57.8849 144.069 58.3964 143.276 58.765C142.483 59.1336 141.451 59.318 140.179 59.318ZM155.015 59.3318C154.065 59.3318 153.254 59.1751 152.582 58.8618C151.918 58.5484 151.411 58.06 151.061 57.3964C150.72 56.7329 150.55 55.8758 150.55 54.8252C150.55 54.0971 150.55 53.369 150.55 52.641C150.55 51.9037 150.55 51.171 150.55 50.4429C150.55 49.7057 150.55 48.973 150.55 48.2449C150.55 47.5169 150.55 46.7888 150.55 46.0607C150.55 45.0838 150.55 44.1807 150.55 43.3512C150.55 42.5218 150.55 41.6693 150.55 40.7938L153.466 40.2132C153.466 40.9136 153.466 41.5633 153.466 42.1624C153.466 42.7614 153.466 43.3743 153.466 44.001C153.466 44.6184 153.466 45.305 153.466 46.0607V54.0095C153.466 54.9496 153.655 55.6592 154.033 56.1384C154.411 56.6084 155.001 56.8435 155.803 56.8435C156.134 56.8435 156.489 56.7882 156.867 56.6776C157.254 56.5578 157.609 56.378 157.932 56.1384L158.139 58.6268C157.927 58.765 157.655 58.8894 157.323 59C157.001 59.1014 156.637 59.1797 156.231 59.235C155.835 59.2995 155.429 59.3318 155.015 59.3318ZM148.047 47.5399V45.2589H158.028V47.5399C157.125 47.5399 156.217 47.5399 155.305 47.5399C154.393 47.5399 153.503 47.5399 152.637 47.5399H151.379H148.047ZM165.979 59C165.712 58.0231 165.421 56.9771 165.108 55.862C164.795 54.7468 164.504 53.7146 164.237 52.7654L162.509 46.586C162.205 45.4893 161.869 44.2867 161.5 42.978C161.131 41.6693 160.786 40.439 160.463 39.287H164.099C164.431 40.6233 164.781 42.0287 165.149 43.5033C165.518 44.9779 165.864 46.3833 166.186 47.7196L168.039 55.1569H168.315L170.14 47.6228C170.352 46.7658 170.573 45.858 170.803 44.8995C171.034 43.9411 171.264 42.9826 171.495 42.0241C171.734 41.0657 171.96 40.1533 172.172 39.287H175.78C176.112 40.6233 176.457 42.0149 176.817 43.4618C177.176 44.9087 177.526 46.305 177.867 47.6505L179.734 55.1569H180.01L181.876 47.609C182.199 46.3096 182.54 44.9226 182.899 43.448C183.268 41.9734 183.614 40.5864 183.936 39.287H187.558C187.236 40.4574 186.89 41.6877 186.521 42.978C186.162 44.2682 185.826 45.4571 185.512 46.5446L183.757 52.7654C183.471 53.7515 183.171 54.8021 182.858 55.9172C182.554 57.0232 182.264 58.0508 181.987 59H177.937C177.605 57.7374 177.255 56.4103 176.886 55.0187C176.527 53.6179 176.186 52.3 175.863 51.065L173.997 43.8904H173.72L171.896 51.065C171.582 52.3 171.246 53.6225 170.886 55.0325C170.527 56.4333 170.186 57.7558 169.863 59H165.979ZM195.52 59.3318C194.34 59.3318 193.308 59.1336 192.423 58.7373C191.538 58.3411 190.796 57.8065 190.197 57.1338C189.608 56.4518 189.165 55.6776 188.87 54.8113C188.575 53.9358 188.428 53.0188 188.428 52.0604C188.428 50.6872 188.704 49.466 189.257 48.397C189.81 47.3187 190.612 46.4708 191.663 45.8534C192.713 45.2267 193.981 44.9133 195.464 44.9133C196.598 44.9133 197.602 45.0931 198.478 45.4525C199.354 45.8119 200.086 46.3188 200.676 46.9731C201.275 47.6182 201.727 48.374 202.031 49.2403C202.335 50.1066 202.487 51.0466 202.487 52.0604C202.487 53.4335 202.21 54.6685 201.658 55.7652C201.105 56.8619 200.303 57.7328 199.252 58.3779C198.211 59.0138 196.967 59.3318 195.52 59.3318ZM195.506 56.8435C196.391 56.8435 197.128 56.6177 197.718 56.1661C198.307 55.7053 198.745 55.1108 199.031 54.3828C199.326 53.6547 199.473 52.8806 199.473 52.0604C199.473 51.1111 199.307 50.2909 198.976 49.5997C198.653 48.8993 198.192 48.3601 197.593 47.9823C197.003 47.5952 196.303 47.4017 195.492 47.4017C194.616 47.4017 193.875 47.609 193.266 48.0237C192.667 48.4292 192.211 48.9868 191.898 49.6964C191.594 50.3969 191.442 51.1848 191.442 52.0604C191.442 52.8806 191.589 53.6547 191.884 54.3828C192.188 55.1108 192.64 55.7053 193.239 56.1661C193.847 56.6177 194.603 56.8435 195.506 56.8435ZM206.735 59C206.735 57.9955 206.735 57.0232 206.735 56.0831C206.735 55.1431 206.735 54.1063 206.735 52.9727V51.5903C206.735 50.5674 206.735 49.526 206.735 48.4661C206.735 47.3971 206.735 46.328 206.735 45.2589L209.265 45.0931L209.376 47.8026H209.652C210.021 46.9916 210.44 46.3787 210.91 45.964C211.38 45.5492 211.859 45.2728 212.348 45.1345C212.836 44.9871 213.292 44.9133 213.716 44.9133C213.956 44.9133 214.205 44.9318 214.463 44.9686C214.721 45.0055 214.965 45.0654 215.196 45.1484L214.933 48.079C214.61 48.0237 214.32 47.9823 214.062 47.9546C213.804 47.927 213.509 47.9132 213.177 47.9132C212.919 47.9132 212.633 47.95 212.32 48.0237C212.007 48.0883 211.689 48.2265 211.366 48.4385C211.053 48.6504 210.749 48.9684 210.454 49.3923C210.168 49.807 209.915 50.3554 209.694 51.0374V53.1248C209.694 54.1846 209.694 55.18 209.694 56.1108C209.694 57.0324 209.694 57.9955 209.694 59H206.735ZM227.797 59C227.254 58.3917 226.705 57.7881 226.152 57.1891C225.609 56.5808 225.065 55.9818 224.521 55.3919L222.448 53.111H221.452V51.065H222.558L224.328 49.0191C224.871 48.3924 225.415 47.7657 225.959 47.139C226.503 46.5031 227.042 45.8764 227.576 45.2589H231.115C230.369 46.07 229.627 46.881 228.889 47.692C228.152 48.503 227.42 49.314 226.691 50.125L224.493 52.5165L224.383 51.148L226.982 54.0925C227.737 54.9127 228.498 55.7329 229.263 56.5532C230.028 57.3734 230.783 58.189 231.53 59H227.797ZM218.798 59C218.798 57.9955 218.798 57.0232 218.798 56.0831C218.798 55.1431 218.798 54.1063 218.798 52.9727V45.3557C218.798 44.2037 218.798 43.084 218.798 41.9965C218.798 40.8998 218.798 39.8215 218.798 38.7617L221.756 38.4437C221.756 39.5404 221.756 40.6556 221.756 41.7891C221.756 42.9227 221.756 44.1116 221.756 45.3557V53.498C221.756 54.4934 221.756 55.4242 221.756 56.2905C221.756 57.1568 221.756 58.06 221.756 59H218.798Z" fill="#0D090A"/>
</svg>

<svg width="248" height="96" fill="none" xmlns="http://www.w3.org/2000/svg"><rect y="14" width="248" height="68" rx="16" fill="#3FA99E"/><path d="M17 8a7 7 0 017-7h52a7 7 0 017 7v80a7 7 0 01-7 7H24a7 7 0 01-7-7V8z" stroke="#0D090A" stroke-width="2"/><path d="M17 14V8a7 7 0 017-7h52a7 7 0 017 7v6M17 82v6a7 7 0 007 7h52a7 7 0 007-7v-6" stroke="#FFFCFF" stroke-width="2"/><rect x="22.5" y="8.5" width="55" height="15" rx="3.5" stroke="#0D090A"/><path d="M22.5 14v-2 0A3.5 3.5 0 0126 8.5h48a3.5 3.5 0 013.5 3.5v2" stroke="#FFFCFF"/><rect x="22.5" y="30.5" width="9" height="9" rx="1.5" stroke="#0D090A"/><rect x="37.833" y="30.5" width="9" height="9" rx="1.5" stroke="#0D090A"/><rect x="53.166" y="30.5" width="9" height="9" rx="1.5" stroke="#0D090A"/><rect x="68.499" y="30.5" width="9" height="9" rx="1.5" stroke="#0D090A"/><rect x="22.5" y="46.5" width="9" height="9" rx="1.5" stroke="#0D090A"/><rect x="37.833" y="46.5" width="9" height="9" rx="1.5" stroke="#0D090A"/><rect x="53.166" y="46.5" width="9" height="9" rx="1.5" stroke="#0D090A"/><rect x="68.499" y="46.5" width="9" height="9" rx="1.5" stroke="#0D090A"/><rect x="22.5" y="62.5" width="9" height="9" rx="1.5" stroke="#0D090A"/><rect x="37.833" y="62.5" width="9" height="9" rx="1.5" stroke="#0D090A"/><rect x="53.166" y="62.5" width="9" height="9" rx="1.5" stroke="#0D090A"/><rect x="68.499" y="62.5" width="9" height="9" rx="1.5" stroke="#0D090A"/><path d="M22.5 82v3.5a2 2 0 002 2h5a2 2 0 002-2V82" stroke="#FFFCFF"/><path d="M22.5 82v-1.346 0c0-1.19.964-2.154 2.154-2.154h4.692c1.19 0 2.154.964 2.154 2.154V82" stroke="#0D090A"/><path d="M37.833 82v3.5a2 2 0 002 2h5a2 2 0 002-2V82" stroke="#FFFCFF"/><path d="M37.833 82v-1.346 0c0-1.19.964-2.154 2.154-2.154h4.692c1.19 0 2.154.964 2.154 2.154V82" stroke="#0D090A"/><path d="M53.166 82v3.5a2 2 0 002 2h5a2 2 0 002-2V82" stroke="#FFFCFF"/><path d="M53.166 82v-1.346 0c0-1.19.964-2.154 2.154-2.154h4.692c1.19 0 2.154.964 2.154 2.154V82" stroke="#0D090A"/><path d="M68.499 82v3.5a2 2 0 002 2h5a2 2 0 002-2V82" stroke="#FFFCFF"/><path d="M68.499 82v-1.346 0c0-1.19.964-2.154 2.154-2.154h4.692c1.19 0 2.154.964 2.154 2.154V82" stroke="#0D090A"/><path d="M108.496 59.332c-1.576 0-2.995-.25-4.258-.747-1.263-.507-2.336-1.216-3.221-2.129a9.315 9.315 0 01-2.032-3.234c-.47-1.245-.705-2.609-.705-4.092 0-1.982.405-3.742 1.216-5.281a9.008 9.008 0 013.429-3.622c1.474-.875 3.212-1.313 5.211-1.313.646 0 1.277.046 1.894.138a12.56 12.56 0 011.756.36 14.82 14.82 0 011.562.497c.479.175.899.364 1.258.567l-.276 3.069a13.734 13.734 0 00-2.074-1.05 10.69 10.69 0 00-1.963-.581 9.306 9.306 0 00-1.852-.194c-1.309 0-2.475.3-3.498.899-1.023.59-1.825 1.437-2.405 2.543-.581 1.106-.871 2.429-.871 3.968a9.25 9.25 0 00.442 2.889 7.066 7.066 0 001.355 2.378c.599.682 1.35 1.22 2.253 1.617.903.387 1.949.58 3.138.58.461 0 .917-.027 1.369-.082.461-.065.917-.162 1.368-.29a7.608 7.608 0 001.355-.526 9.818 9.818 0 001.327-.788l.221 3.041a9.54 9.54 0 01-1.299.623c-.47.175-.963.317-1.479.428-.516.11-1.046.194-1.59.249-.544.055-1.087.083-1.631.083zm16.66 0c-1.18 0-2.212-.198-3.097-.595a6.488 6.488 0 01-2.226-1.603 6.944 6.944 0 01-1.327-2.323 8.557 8.557 0 01-.442-2.75c0-1.374.276-2.595.829-3.664a6.15 6.15 0 012.406-2.544c1.05-.626 2.318-.94 3.801-.94 1.134 0 2.139.18 3.014.54a5.95 5.95 0 012.198 1.52 6.41 6.41 0 011.355 2.267 8.46 8.46 0 01.456 2.82c0 1.373-.276 2.608-.829 3.705a6.381 6.381 0 01-2.406 2.613c-1.041.636-2.285.954-3.732.954zm-.014-2.489c.885 0 1.622-.225 2.212-.677a4.13 4.13 0 001.313-1.783 6.125 6.125 0 00.442-2.323c0-.949-.166-1.77-.497-2.46-.323-.7-.784-1.24-1.383-1.618-.59-.387-1.29-.58-2.101-.58-.875 0-1.617.207-2.226.622-.599.405-1.055.963-1.368 1.672-.304.7-.456 1.489-.456 2.364 0 .82.147 1.595.442 2.323a4.29 4.29 0 001.355 1.783c.608.452 1.364.678 2.267.678zm15.037 2.475a12.78 12.78 0 01-1.783-.124 12.306 12.306 0 01-1.645-.346 9.973 9.973 0 01-1.341-.512l.221-2.681c.415.24.867.451 1.355.636.488.175.995.313 1.521.414a9.411 9.411 0 001.603.139c.443 0 .848-.042 1.217-.125.378-.092.677-.263.898-.511.231-.25.346-.618.346-1.106 0-.323-.106-.59-.318-.802-.212-.212-.558-.401-1.037-.567a27.12 27.12 0 00-1.963-.608 9.371 9.371 0 01-2.004-.76c-.562-.305-1-.71-1.314-1.217-.313-.507-.47-1.175-.47-2.005 0-1.336.429-2.373 1.286-3.11.857-.737 2.005-1.106 3.442-1.106.608 0 1.198.05 1.77.152a9.974 9.974 0 011.562.373 7.99 7.99 0 011.216.47l-.235 2.682a6.824 6.824 0 00-1.382-.663 8.227 8.227 0 00-1.41-.401 5.898 5.898 0 00-1.148-.138c-.359 0-.7.05-1.023.152a1.494 1.494 0 00-.76.497c-.193.23-.29.544-.29.94 0 .314.074.581.221.802.147.221.415.424.802.608.396.185.968.378 1.714.581.931.267 1.719.548 2.364.843.654.295 1.147.682 1.479 1.162.332.479.498 1.142.498 1.99 0 .848-.185 1.6-.553 2.254-.369.654-.949 1.165-1.742 1.534s-1.825.553-3.097.553zm14.836.014c-.95 0-1.761-.157-2.433-.47a3.251 3.251 0 01-1.521-1.466c-.341-.663-.511-1.52-.511-2.57V40.793l2.916-.58V54.01c0 .94.189 1.65.567 2.128.378.47.968.706 1.77.706a3.8 3.8 0 001.064-.166c.387-.12.742-.3 1.065-.54l.207 2.489a3.568 3.568 0 01-.816.373c-.322.101-.686.18-1.092.235a7.559 7.559 0 01-1.216.097zm-6.968-11.792v-2.281h9.981v2.28h-9.981zM165.979 59c-.267-.977-.558-2.023-.871-3.138l-.871-3.097-1.728-6.179c-.304-1.097-.64-2.3-1.009-3.608-.369-1.309-.714-2.539-1.037-3.691h3.636l1.05 4.216c.369 1.475.715 2.88 1.037 4.217l1.853 7.437h.276l1.825-7.534c.212-.857.433-1.765.663-2.723l.692-2.876c.239-.958.465-1.87.677-2.737h3.608l1.037 4.175c.359 1.447.709 2.843 1.05 4.188l1.867 7.507h.276l1.866-7.548c.323-1.3.664-2.686 1.023-4.161.369-1.475.715-2.862 1.037-4.161h3.622a391.1 391.1 0 01-1.037 3.691 384.87 384.87 0 01-1.009 3.567l-1.755 6.22c-.286.986-.586 2.037-.899 3.152a205.176 205.176 0 01-.871 3.083h-4.05c-.332-1.263-.682-2.59-1.051-3.981-.359-1.401-.7-2.719-1.023-3.954l-1.866-7.175h-.277l-1.824 7.175c-.314 1.235-.65 2.558-1.01 3.968-.359 1.4-.7 2.723-1.023 3.967h-3.884zm29.541.332c-1.18 0-2.212-.198-3.097-.595a6.479 6.479 0 01-2.226-1.603 6.944 6.944 0 01-1.327-2.323 8.557 8.557 0 01-.442-2.75c0-1.374.276-2.595.829-3.664a6.15 6.15 0 012.406-2.544c1.05-.626 2.318-.94 3.801-.94 1.134 0 2.138.18 3.014.54a5.95 5.95 0 012.198 1.52 6.41 6.41 0 011.355 2.267 8.46 8.46 0 01.456 2.82c0 1.373-.277 2.608-.829 3.705a6.381 6.381 0 01-2.406 2.613c-1.041.636-2.285.954-3.732.954zm-.014-2.489c.885 0 1.622-.225 2.212-.677a4.137 4.137 0 001.313-1.783 6.125 6.125 0 00.442-2.323c0-.949-.166-1.77-.497-2.46-.323-.7-.784-1.24-1.383-1.618-.59-.387-1.29-.58-2.101-.58-.876 0-1.617.207-2.226.622-.599.405-1.055.963-1.368 1.672-.304.7-.456 1.489-.456 2.364 0 .82.147 1.595.442 2.323a4.29 4.29 0 001.355 1.783c.608.452 1.364.678 2.267.678zM206.735 59V45.259l2.53-.166.111 2.71h.276c.369-.811.788-1.424 1.258-1.839.47-.415.949-.691 1.438-.83a4.746 4.746 0 011.368-.22c.24 0 .489.018.747.055.258.036.502.096.733.18l-.263 2.93a14.186 14.186 0 00-.871-.124 8.407 8.407 0 00-.885-.042c-.258 0-.544.037-.857.11a2.768 2.768 0 00-.954.415c-.313.212-.617.53-.912.954-.286.415-.539.963-.76 1.645V59h-2.959zm21.062 0a146.11 146.11 0 00-1.645-1.81 149.807 149.807 0 00-1.631-1.798l-2.073-2.281h-.996v-2.046h1.106l1.77-2.046 1.631-1.88c.544-.636 1.083-1.263 1.617-1.88h3.539c-.746.811-1.488 1.622-2.226 2.433-.737.811-1.469 1.622-2.198 2.433l-2.198 2.392-.11-1.369 2.599 2.944c.755.82 1.516 1.64 2.281 2.461.765.82 1.52 1.636 2.267 2.447h-3.733zm-8.999 0V38.762l2.958-.318V59h-2.958z" fill="#0D090A"/></svg>
